icons/24x24_user_add_outline.svg

<svg xmlns="http://www.w3.org/2000/svg" width="24" height="24" viewBox="0 0 24 24">
  <path fill-rule="evenodd" d="M15.9981484,15.5294449 C14.9361735,14.5787314 13.5345409,14 12,14 C8.691,14 6,16.691 6,20 L4,20 C4,15.589 7.589,12 12,12 C14.2519731,12 16.2896946,12.9354611 17.7449612,14.4381801 C17.0990442,14.7003267 16.5091303,15.0717246 15.9981484,15.5294449 Z M4,20 L6,20 L6,21 C6,21.5522847 5.55228475,22 5,22 C4.44771525,22 4,21.5522847 4,21 L4,20 Z M12,10 C9.790861,10 8,8.209139 8,6 C8,3.790861 9.790861,2 12,2 C14.209139,2 16,3.790861 16,6 C16,8.209139 14.209139,10 12,10 Z M12,8 C13.1045695,8 14,7.1045695 14,6 C14,4.8954305 13.1045695,4 12,4 C10.8954305,4 10,4.8954305 10,6 C10,7.1045695 10.8954305,8 12,8 Z M21,19 L23,19 C23.5522847,19 24,19.4477153 24,20 C24,20.5522847 23.5522847,21 23,21 L21,21 L21,23 C21,23.5522847 20.5522847,24 20,24 C19.4477153,24 19,23.5522847 19,23 L19,21 L17,21 C16.4477153,21 16,20.5522847 16,20 C16,19.4477153 16.4477153,19 17,19 L19,19 L19,17 C19,16.4477153 19.4477153,16 20,16 C20.5522847,16 21,16.4477153 21,17 L21,19 Z"/>
</svg>

<svg width="24" height="24" fill="none" xmlns="http://www.w3.org/2000/svg"><path fill-rule="evenodd" clip-rule="evenodd" d="M15.998 15.53A5.976 5.976 0 0 0 12 14c-3.309 0-6 2.691-6 6H4c0-4.411 3.589-8 8-8 2.252 0 4.29.935 5.745 2.438a6 6 0 0 0-1.747 1.091ZM4 20h2v1a1 1 0 1 1-2 0v-1Zm8-10a4 4 0 1 1 0-8 4 4 0 0 1 0 8Zm0-2a2 2 0 1 0 0-4 2 2 0 0 0 0 4Zm9 11h2a1 1 0 1 1 0 2h-2v2a1 1 0 1 1-2 0v-2h-2a1 1 0 1 1 0-2h2v-2a1 1 0 1 1 2 0v2Z" fill="#000"/></svg>
